X:1
T:Florete flores
T:Florete flores
T:Giovanni Girolamo Kapspergher
T:Source : Libro primo di mottetti passeggiati a una voce---Roma---1612. Racolta del Sig.Francesco de Nobile Editor : André Vierendeels (30/10/15).
T:Notes : Original clefs : C1, F4 Editorial accidentals above the staff Note values have been halved in 3-beat measures  
C:Giovanni Girolamo Kapsperger
%%score 1 2
L:1/8
Q:1/4=90
M:4/4
K:F
V:1 treble nm="Soprano" snm="S"
V:2 bass nm="BC" snm="BC"
V:1
 c4 d4 | e4 f4 | d4 cBcd | _edec =B>c dG | A3 B c3 d | d6 d2 | c8 | c4 d4 | c4 B4 | %9
w: Flo- re-|te flo-|res qua- * * *||* * * si|li- li-|um,|flo- re-|te flo-|
 A D/E/ F/G/A/B/ c4- | c2 de f3 g | G6 G2 | F4 c4 | d/_e/f/e/ d/c/B/A/ G/A/B/c/ d/e/f/d/ | %14
w: res qua- * * * * * *|* * * * si|li- li-|um et|da- * * * * * * * * * * * * * * *|
 _e>c d/c/d/e/ f>g f/e/d/c/4B/4 | cd/_e/ AB/c/ F/G/A/B/ GA | B/A/B/A/ B/A/A/A/ A/A/A/A/ GA | %17
w: te o- * * * * do- * * * * * *|||
 B6 dd | _e/f/g/f/ e/d/c/d/ e/d/c/B/ A/B/c/B/ | A/G/F/E/ D/E/F/G/ A/B/c/A/ B/c/d/_e/ | %20
w: rem et fron-|de- * * * * * * * * * * * * * * *||
 d/c/d/c/ B/c/B/A/ B/c/d/c/ B/c/B/A/ | B/A/G/A/ G/^F/D/E/ F/G/A/B/ c/d/B/c/ | %22
w: ||
 d/G/A/B/ G/c/ B>c d/G/ A2 | G4 =B4 |"^b" G/A/B/c/ d/e/f/g/- g2 f/_e/f/d/ | %25
w: |te in-|gra- * * * * * * * * * * * *|
 _e2 c/d/=B cd/G/ A/B/c/A/ | =B>c B/c/B/c/ B/B/B/B/ AB | c8 |[M:3/4] c2 B2 B2 | A4 B2 | c3 B c2 | %31
w: |* * * * * * * * * * * ti-|am,|et col- lau-|da- te|can- ti- cum|
 d2 d2 e2 |[M:4/4] f6 AB | c6 c2 | B4 d4- | d c/B/ A/G/^F/E/ F4- | F^F G2 A4 | G8 | B6 G/A/B/G/ | %39
w: et be- ne|di- ci- te|Do- mi-|no in|_ o- * * * * * pe-|* ri- bus su-|is,|in o- * * *|
 A/B/c/d/ _e/c/d/B/ c/d/G/A/ B/G/A/B/ | c/d/B/c/ A/B/G/A/ B/c/A/B/ G/A/F/G/ | %41
w: * * * * * * * * pe- * * * * * * *||
 A/B/c/A/ B/G/A/B/ c/d/e/ f2 F/ | F F/G/ A/B/A G<F B<A | G8 | F8 |[M:3/4] c4 f2 | g4 _e2 | %47
w: * * * * * * * * * * * * ri-|bus su- * * * * * * * *||is,|Al- le-|lu- ia,|
 f3 g/f/ e/d/c/B/ |[M:4/4] c8 | B4 dcdB | cBcA BABG | AGAF GABG | cd_ed cBAG | A8 | G8 | d8 | %56
w: Al- le- * * * * *|lu-|ia, Al- * * *|le- * * * lu- * * *|ia _ _ _ Al- * * *|le- * * * * * * *|lu-|ia,|Al-|
 c4 B4 | A2 D/E/F/G/ A/B/c/B/ c/=B/B/B/ | A/=B/c/B/4B/4 A/B<c d/e/f/ G2 | G8 | !fermata!F8 |] %61
w: le- lu-|ia, Al- * * * * * * * * * * *|* * * * * * * * * * * le-|lu-|ia.|
V:2
 F,4 B,,4 | C,4 D,4 | B,,4 F,4 | C,4 G,,4 | F,,2 A,,4 F,,2 | G,,8 | C,8 | F,4 B,,C,D,E, | %8
 F,2 F,,2 G,,A,,B,,C, | D,4 A,,4 | A,,6 =B,,2 | C,8 | F,,8 | B,,8 | C,4 D,4 | F,8- | F,8 | B,,8 | %18
 C,8 | D,8 | D,8- | D,8- | D,8 | G,,8 | G,,8 | G,,8- | G,,8 | C,8 |[M:3/4] C,2 D,2 E,2 | F,4 D,2 | %30
 F,3 G, F,2 | B,2 A,2 G,2 |[M:4/4] F,E,D,B, A,G,F,E, | F,8 | B,,8 | C,4 D,4- | D,2 B,,2 D,4 | %37
 G,,8 | G,,8- | G,,8 | F,,8 | F,,8- | F,,8 | C,8 | F,,8 |[M:3/4] F,4 D,2 | _E,4 C,2 | D,4 B,,2 | %48
[M:4/4] F,8 | B,,8 | F,4 G,4 | D,4 _E,4 |"^-natural""^-natural" C,4 _E,4 | D,8 | G,,8 | %55
 B,,2 G,,A,, B,,C,D,E, | F,2 F,,2 G,,A,,B,,C, | D,4 A,,4- | A,,4 =B,,4 | C,8 | !fermata!F,,8 |] %61

